.local/share/icons/Gruvbox-Plus-Dark/panel/16/nutstore-synchronizing-panel.svg

<svg xmlns="http://www.w3.org/2000/svg" width="16" height="16" version="1.1">
 <defs>
  <style id="current-color-scheme" type="text/css">
   .ColorScheme-Text { color:#ebdbb2; } .ColorScheme-Highlight { color:#458588; }
  </style>
 </defs>
 <path style="fill:currentColor" class="ColorScheme-Text" d="M 7.417317,1.0019531 C 6.8133171,0.99958314 6.2266887,1.0798211 5.6790357,1.2421875 4.8464467,1.5712899 4.1626575,1.8744947 4.9407544,2.2851562 6.4161934,3.0560093 7.8060468,4.1074336 9.0091138,5.4394531 9.5324342,6.018866 9.9939903,6.632452 10.409504,7.265625 A 5,5 0 0 1 11.999348,7 5,5 0 0 1 14.901692,7.9335938 C 14.699079,6.4091999 14.070245,4.8083149 12.893879,3.5058594 11.385738,1.8360665 9.3192669,1.0094156 7.417317,1.0019531 Z m 7.40625,0.00586 c -0.204194,-0.018859 -0.427398,0.01367 -0.658203,0.070312 -0.497911,0.1413938 -0.978369,0.5073831 -1.445313,0.8964844 0.31868,0.2641452 0.629004,0.5435533 0.916016,0.8613281 0.110902,0.1227902 0.209869,0.2519012 0.3125,0.3789063 0.119496,-0.057018 0.249175,-0.1092292 0.404297,-0.1445313 0.358329,-0.081548 0.967456,0.1500187 1.25,0.2519531 0.375949,0.00644 0.449347,-0.5595557 0.365234,-0.9589844 C 15.869698,1.8960427 15.562803,1.5640128 15.370442,1.25 15.213309,1.0976196 15.027761,1.0266698 14.823567,1.0078125 Z M 4.2493482,3.0253906 c -0.04378,0.032066 -0.087034,0.05855 -0.1308594,0.091797 -3.31051599,2.51173 -5.1638736,8.0631815 -3.49414064,10.0292965 1.38696024,1.633151 4.43838114,2.185168 7.23242194,1.644532 A 5,5 0 0 1 6.9993482,12 5,5 0 0 1 9.4915357,7.6816406 C 9.1255778,7.136434 8.7186388,6.6095042 8.2669263,6.109375 7.1454973,4.8677455 5.8514958,3.8895379 4.4778638,3.171875 h -0.00195 l -0.00195,-0.00195 C 4.3999614,3.1308688 4.3252372,3.0717819 4.2493482,3.0253906 Z"/>
 <path style="fill:currentColor" class="ColorScheme-Text" d="M 12.279297,8.0102173 C 11.510855,7.9559073 10.717328,8.1234333 9.9999996,8.5375603 8.0870236,9.6419001 7.4327386,12.087702 8.5371086,14.000451 9.6414796,15.9131 12.087124,16.567682 14,15.463342 15.912976,14.359003 16.567262,11.915154 15.462891,10.002404 14.772659,8.8069983 13.560036,8.1007333 12.279297,8.0102173 Z M 12,8.4008423 l 0.5,0.5 0.5,0.4999998 -0.5,0.5 -0.5,0.4999999 v -0.400391 a 2,2 0 0 0 -2.0000004,2 v 2.230469 a 3,3 0 0 1 -1,-2.230469 A 3,3 0 0 1 12,9.0004511 Z m 2,1.3691398 a 3,3 0 0 1 1,2.2304689 3,3 0 0 1 -3,3 v 0.5 l -0.5,-0.5 -0.5,-0.5 0.5,-0.5 0.5,-0.5 v 0.5 a 2,2 0 0 0 2,-2 z"/>
</svg>

<svg width="16" height="16" version="1.1" xmlns="http://www.w3.org/2000/svg">
  <defs>
    <style id="current-color-scheme" type="text/css">.ColorScheme-Text { color:#ebdbb2; } .ColorScheme-Highlight { color:#458588; } .ColorScheme-NeutralText { color:#fe8019; } .ColorScheme-PositiveText { color:#689d6a; } .ColorScheme-NegativeText { color:#fb4934; }</style>
  </defs>
  <path class="ColorScheme-Text" d="m7.417 1.002c-0.604-0.00237-1.191 0.07787-1.738 0.2402-0.8326 0.3291-1.516 0.6323-0.7383 1.043 1.475 0.7709 2.865 1.822 4.068 3.154 0.5233 0.5794 0.9849 1.193 1.4 1.826a5 5 0 0 1 1.59-0.2656 5 5 0 0 1 2.902 0.9336c-0.2026-1.524-0.8314-3.125-2.008-4.428-1.508-1.67-3.575-2.496-5.477-2.504zm7.406 0.00586c-0.2042-0.01886-0.4274 0.01367-0.6582 0.07031-0.4979 0.1414-0.9784 0.5074-1.445 0.8965 0.3187 0.2641 0.629 0.5436 0.916 0.8613 0.1109 0.1228 0.2099 0.2519 0.3125 0.3789 0.1195-0.05702 0.2492-0.1092 0.4043-0.1445 0.3583-0.08155 0.9675 0.15 1.25 0.252 0.3759 0.00644 0.4493-0.5596 0.3652-0.959-0.0984-0.4672-0.4053-0.7993-0.5977-1.113-0.1571-0.1524-0.3427-0.2233-0.5469-0.2422zm-10.57 2.018c-0.04378 0.03207-0.08703 0.05855-0.1309 0.0918-3.311 2.512-5.164 8.063-3.494 10.03 1.387 1.633 4.438 2.185 7.232 1.645a5 5 0 0 1-0.8574-2.791 5 5 0 0 1 2.492-4.318c-0.366-0.5452-0.7729-1.072-1.225-1.572-1.121-1.242-2.415-2.22-3.789-2.938h-0.00195l-0.00195-0.00195c-0.074-0.03906-0.1487-0.09814-0.2246-0.1445z" fill="currentColor"/>
  <path class="ColorScheme-Text" d="m12.28 8.01c-0.7684-0.05431-1.562 0.1132-2.279 0.5273-1.913 1.104-2.567 3.55-1.463 5.463 1.104 1.913 3.55 2.567 5.463 1.463 1.913-1.104 2.567-3.548 1.463-5.461-0.6902-1.195-1.903-1.902-3.184-1.992zm-0.2793 0.3906 1 1-1 1v-0.4004a2 2 0 0 0-2 2v2.23a3 3 0 0 1-1-2.23 3 3 0 0 1 3-3zm2 1.369a3 3 0 0 1 1 2.23 3 3 0 0 1-3 3v0.5l-1-1 1-1v0.5a2 2 0 0 0 2-2z" fill="currentColor"/>
</svg>
